flaticon/science/atoms.svg

<svg xmlns="http://www.w3.org/2000/svg" width="32" height="32" viewBox="0 0 24 24">
    <path d="M3.199219 2C3.199219 1.761719 3.039062 1.601562 2.800781 1.601562 2.121094 1.601562 1.601562 2.121094 1.601562 2.800781 1.601562 3.039062 1.761719 3.199219 2 3.199219 2.238281 3.199219 2.398438 3.039062 2.398438 2.800781 2.398438 2.558594 2.558594 2.398438 2.800781 2.398438 3.039062 2.398438 3.199219 2.238281 3.199219 2zM14.398438 3.199219C14.640625 3.199219 14.800781 3.039062 14.800781 2.800781 14.800781 2.558594 14.960938 2.398438 15.199219 2.398438 15.441406 2.398438 15.601562 2.238281 15.601562 2 15.601562 1.761719 15.441406 1.601562 15.199219 1.601562 14.519531 1.601562 14 2.121094 14 2.800781 14 3.039062 14.160156 3.199219 14.398438 3.199219zM2.800781 14C2.121094 14 1.601562 14.519531 1.601562 15.199219 1.601562 15.441406 1.761719 15.601562 2 15.601562 2.238281 15.601562 2.398438 15.441406 2.398438 15.199219 2.398438 14.960938 2.558594 14.800781 2.800781 14.800781 3.039062 14.800781 3.199219 14.640625 3.199219 14.398438 3.199219 14.160156 3.039062 14 2.800781 14zM15.199219 14C14.519531 14 14 14.519531 14 15.199219 14 15.441406 14.160156 15.601562 14.398438 15.601562 14.640625 15.601562 14.800781 15.441406 14.800781 15.199219 14.800781 14.960938 14.960938 14.800781 15.199219 14.800781 15.441406 14.800781 15.601562 14.640625 15.601562 14.398438 15.601562 14.160156 15.441406 14 15.199219 14zM8 9.199219C8.238281 9.199219 8.398438 9.039062 8.398438 8.800781 8.398438 8.558594 8.558594 8.398438 8.800781 8.398438 9.039062 8.398438 9.199219 8.238281 9.199219 8 9.199219 7.761719 9.039062 7.601562 8.800781 7.601562 8.121094 7.601562 7.601562 8.121094 7.601562 8.800781 7.601562 9.039062 7.761719 9.199219 8 9.199219zM20 8.800781C20 9.039062 20.160156 9.199219 20.398438 9.199219 20.640625 9.199219 20.800781 9.039062 20.800781 8.800781 20.800781 8.558594 20.960938 8.398438 21.199219 8.398438 21.441406 8.398438 21.601562 8.238281 21.601562 8 21.601562 7.761719 21.441406 7.601562 21.199219 7.601562 20.519531 7.601562 20 8.121094 20 8.800781zM8.800781 20C8.121094 20 7.601562 20.519531 7.601562 21.199219 7.601562 21.441406 7.761719 21.601562 8 21.601562 8.238281 21.601562 8.398438 21.441406 8.398438 21.199219 8.398438 20.960938 8.558594 20.800781 8.800781 20.800781 9.039062 20.800781 9.199219 20.640625 9.199219 20.398438 9.199219 20.160156 9.039062 20 8.800781 20zM21.199219 20C20.519531 20 20 20.519531 20 21.199219 20 21.441406 20.160156 21.601562 20.398438 21.601562 20.640625 21.601562 20.800781 21.441406 20.800781 21.199219 20.800781 20.960938 20.960938 20.800781 21.199219 20.800781 21.441406 20.800781 21.601562 20.640625 21.601562 20.398438 21.601562 20.160156 21.441406 20 21.199219 20zM21.199219 20"/>
    <path d="M 21.601562 18.429688 L 21.601562 11.570312 C 22.964844 11.378906 24 10.222656 24 8.800781 C 24 7.238281 22.761719 6 21.199219 6 C 20.667969 6 20.175781 6.144531 19.753906 6.394531 L 17.605469 4.246094 C 17.855469 3.824219 18 3.332031 18 2.800781 C 18 1.238281 16.761719 0 15.199219 0 C 13.777344 0 12.621094 1.035156 12.429688 2.398438 L 5.570312 2.398438 C 5.378906 1.035156 4.222656 0 2.800781 0 C 1.238281 0 0 1.238281 0 2.800781 C 0 4.222656 1.035156 5.378906 2.398438 5.570312 L 2.398438 12.429688 C 1.035156 12.621094 0 13.777344 0 15.199219 C 0 16.761719 1.238281 18 2.800781 18 C 3.332031 18 3.824219 17.855469 4.246094 17.605469 L 6.394531 19.753906 C 6.144531 20.175781 6 20.667969 6 21.199219 C 6 22.761719 7.238281 24 8.800781 24 C 10.222656 24 11.378906 22.964844 11.570312 21.601562 L 18.429688 21.601562 C 18.621094 22.964844 19.777344 24 21.199219 24 C 22.761719 24 24 22.761719 24 21.199219 C 24 19.777344 22.964844 18.621094 21.601562 18.429688 Z M 20.441406 18.503906 C 20.101562 18.589844 19.785156 18.742188 19.507812 18.945312 L 17.445312 16.886719 C 17.792969 16.417969 18 15.835938 18 15.199219 C 18 13.777344 16.964844 12.621094 15.601562 12.429688 L 15.601562 9.199219 L 18.398438 9.199219 C 18.546875 10.304688 19.375 11.242188 20.472656 11.507812 C 20.566406 11.53125 20.664062 11.550781 20.761719 11.566406 L 20.761719 18.433594 C 20.652344 18.449219 20.546875 18.472656 20.441406 18.503906 Z M 11.105469 19.597656 C 10.675781 18.972656 9.996094 18.527344 9.199219 18.398438 L 9.199219 15.601562 L 12.429688 15.601562 C 12.621094 16.964844 13.777344 18 15.199219 18 C 15.835938 18 16.417969 17.792969 16.886719 17.445312 L 18.941406 19.5 C 18.65625 19.867188 18.460938 20.3125 18.398438 20.800781 L 11.570312 20.800781 C 11.511719 20.355469 11.347656 19.949219 11.105469 19.597656 Z M 6.898438 19.136719 L 4.863281 17.101562 C 5.238281 16.695312 5.492188 16.179688 5.570312 15.601562 L 8.398438 15.601562 L 8.398438 18.429688 C 7.820312 18.507812 7.304688 18.761719 6.898438 19.136719 Z M 3.199219 12.398438 L 3.199219 5.570312 C 3.679688 5.503906 4.117188 5.320312 4.484375 5.042969 L 6.554688 7.113281 C 6.207031 7.582031 6 8.164062 6 8.800781 C 6 10.222656 7.035156 11.378906 8.398438 11.570312 L 8.398438 14.800781 L 5.570312 14.800781 C 5.511719 14.355469 5.347656 13.949219 5.105469 13.597656 C 4.675781 12.972656 3.996094 12.527344 3.199219 12.398438 Z M 14.472656 5.507812 C 14.566406 5.53125 14.664062 5.550781 14.761719 5.566406 L 14.761719 8.398438 L 11.570312 8.398438 C 11.378906 7.035156 10.222656 6 8.800781 6 C 8.164062 6 7.582031 6.207031 7.113281 6.554688 L 5.042969 4.484375 C 5.320312 4.117188 5.503906 3.679688 5.570312 3.199219 L 12.398438 3.199219 C 12.546875 4.304688 13.375 5.242188 14.472656 5.507812 Z M 17.101562 4.863281 L 19.136719 6.898438 C 18.761719 7.304688 18.507812 7.820312 18.429688 8.398438 L 15.601562 8.398438 L 15.601562 5.570312 C 16.179688 5.492188 16.695312 5.238281 17.101562 4.863281 Z M 15.199219 17.199219 C 14.078125 17.199219 13.199219 16.320312 13.199219 15.199219 C 13.199219 14.078125 14.078125 13.199219 15.199219 13.199219 C 16.320312 13.199219 17.199219 14.078125 17.199219 15.199219 C 17.199219 16.320312 16.320312 17.199219 15.199219 17.199219 Z M 14.761719 12.433594 C 14.652344 12.449219 14.546875 12.472656 14.441406 12.503906 C 13.386719 12.773438 12.546875 13.671875 12.398438 14.800781 L 9.199219 14.800781 L 9.199219 11.570312 C 10.4375 11.398438 11.398438 10.4375 11.570312 9.199219 L 14.761719 9.199219 Z M 7.289062 7.476562 C 7.332031 7.457031 7.367188 7.433594 7.398438 7.398438 C 7.433594 7.367188 7.460938 7.328125 7.480469 7.285156 C 7.832031 6.984375 8.289062 6.800781 8.800781 6.800781 C 9.921875 6.800781 10.800781 7.679688 10.800781 8.800781 C 10.800781 9.921875 9.921875 10.800781 8.800781 10.800781 C 7.679688 10.800781 6.800781 9.921875 6.800781 8.800781 C 6.800781 8.289062 6.984375 7.828125 7.289062 7.476562 Z M 23.199219 8.800781 C 23.199219 9.921875 22.320312 10.800781 21.199219 10.800781 C 20.078125 10.800781 19.199219 9.921875 19.199219 8.800781 C 19.199219 8.183594 19.46875 7.636719 19.894531 7.273438 C 19.933594 7.253906 19.96875 7.230469 20 7.199219 C 20.007812 7.191406 20.015625 7.183594 20.023438 7.171875 C 20.351562 6.9375 20.757812 6.800781 21.199219 6.800781 C 22.320312 6.800781 23.199219 7.679688 23.199219 8.800781 Z M 15.199219 0.800781 C 16.320312 0.800781 17.199219 1.679688 17.199219 2.800781 C 17.199219 3.242188 17.0625 3.648438 16.828125 3.976562 C 16.816406 3.984375 16.808594 3.992188 16.800781 4 C 16.765625 4.035156 16.738281 4.070312 16.71875 4.109375 C 16.355469 4.535156 15.816406 4.800781 15.199219 4.800781 C 14.078125 4.800781 13.199219 3.921875 13.199219 2.800781 C 13.199219 1.679688 14.078125 0.800781 15.199219 0.800781 Z M 0.800781 2.800781 C 0.800781 1.679688 1.679688 0.800781 2.800781 0.800781 C 3.921875 0.800781 4.800781 1.679688 4.800781 2.800781 C 4.800781 3.921875 3.921875 4.800781 2.800781 4.800781 C 1.679688 4.800781 0.800781 3.921875 0.800781 2.800781 Z M 0.800781 15.199219 C 0.800781 14.078125 1.679688 13.199219 2.800781 13.199219 C 3.921875 13.199219 4.800781 14.078125 4.800781 15.199219 C 4.800781 15.8125 4.535156 16.355469 4.109375 16.71875 C 4.070312 16.738281 4.035156 16.765625 4 16.800781 C 3.992188 16.808594 3.984375 16.816406 3.976562 16.828125 C 3.648438 17.0625 3.242188 17.199219 2.800781 17.199219 C 1.679688 17.199219 0.800781 16.320312 0.800781 15.199219 Z M 8.800781 23.199219 C 7.679688 23.199219 6.800781 22.320312 6.800781 21.199219 C 6.800781 20.757812 6.9375 20.351562 7.175781 20.023438 C 7.183594 20.015625 7.191406 20.007812 7.199219 20 C 7.234375 19.964844 7.261719 19.929688 7.28125 19.890625 C 7.644531 19.464844 8.1875 19.199219 8.800781 19.199219 C 9.921875 19.199219 10.800781 20.078125 10.800781 21.199219 C 10.800781 22.320312 9.921875 23.199219 8.800781 23.199219 Z M 21.199219 23.199219 C 20.078125 23.199219 19.199219 22.320312 19.199219 21.199219 C 19.199219 20.6875 19.382812 20.226562 19.691406 19.875 C 19.730469 19.855469 19.769531 19.832031 19.800781 19.800781 C 19.835938 19.765625 19.859375 19.726562 19.878906 19.6875 C 20.230469 19.382812 20.691406 19.199219 21.199219 19.199219 C 22.320312 19.199219 23.199219 20.078125 23.199219 21.199219 C 23.199219 22.320312 22.320312 23.199219 21.199219 23.199219 Z M 21.199219 23.199219"/>
</svg>

<svg xmlns="http://www.w3.org/2000/svg" width="32" height="32" viewBox="0 0 24 24">
    <path d="M3.2 2c0-.238-.16-.398-.4-.398-.679 0-1.198.52-1.198 1.199 0 .238.16.398.398.398.238 0 .398-.16.398-.398 0-.242.16-.403.403-.403.238 0 .398-.16.398-.398zm0 0M14.398 3.2c.243 0 .403-.16.403-.4 0-.241.16-.402.398-.402.242 0 .403-.16.403-.398 0-.238-.16-.398-.403-.398-.68 0-1.199.52-1.199 1.199 0 .238.16.398.398.398zm0 0M2.8 14c-.679 0-1.198.52-1.198 1.2 0 .241.16.402.398.402.238 0 .398-.16.398-.403 0-.238.16-.398.403-.398.238 0 .398-.16.398-.403 0-.238-.16-.398-.398-.398zm0 0M15.2 14c-.68 0-1.2.52-1.2 1.2 0 .241.16.402.398.402.243 0 .403-.16.403-.403 0-.238.16-.398.398-.398.242 0 .403-.16.403-.403 0-.238-.16-.398-.403-.398zm0 0M8 9.2c.238 0 .398-.16.398-.4 0-.241.16-.402.403-.402.238 0 .398-.16.398-.398 0-.238-.16-.398-.398-.398-.68 0-1.2.52-1.2 1.199 0 .238.16.398.399.398zm0 0M20 8.8c0 .24.16.4.398.4.243 0 .403-.16.403-.4 0-.241.16-.402.398-.402.242 0 .403-.16.403-.398 0-.238-.16-.398-.403-.398-.68 0-1.199.52-1.199 1.199zm0 0M8.8 20c-.679 0-1.198.52-1.198 1.2 0 .241.16.402.398.402.238 0 .398-.16.398-.403 0-.238.16-.398.403-.398.238 0 .398-.16.398-.403 0-.238-.16-.398-.398-.398zm0 0M21.2 20c-.68 0-1.2.52-1.2 1.2 0 .241.16.402.398.402.243 0 .403-.16.403-.403 0-.238.16-.398.398-.398.242 0 .403-.16.403-.403 0-.238-.16-.398-.403-.398zm0 0"/>
    <path d="M21.602 18.43v-6.86A2.781 2.781 0 0 0 24 8.8C24 7.239 22.762 6 21.2 6a2.82 2.82 0 0 0-1.446.395l-2.149-2.149A2.82 2.82 0 0 0 18 2.801C18 1.238 16.762 0 15.2 0a2.781 2.781 0 0 0-2.77 2.398H5.57A2.781 2.781 0 0 0 2.8 0 2.781 2.781 0 0 0 0 2.8a2.781 2.781 0 0 0 2.398 2.77v6.86A2.781 2.781 0 0 0 0 15.2C0 16.761 1.238 18 2.8 18a2.82 2.82 0 0 0 1.446-.395l2.149 2.149A2.82 2.82 0 0 0 6 21.199C6 22.762 7.238 24 8.8 24a2.781 2.781 0 0 0 2.77-2.398h6.86A2.781 2.781 0 0 0 21.2 24c1.562 0 2.8-1.238 2.8-2.8a2.781 2.781 0 0 0-2.398-2.77zm-1.16.074c-.34.086-.657.238-.934.441l-2.063-2.058c.348-.469.555-1.051.555-1.688a2.781 2.781 0 0 0-2.398-2.77V9.2h2.796a2.77 2.77 0 0 0 2.075 2.309c.093.023.191.043.289.058v6.868a2.23 2.23 0 0 0-.32.07zm-9.337 1.094a2.862 2.862 0 0 0-1.906-1.2v-2.796h3.23A2.781 2.781 0 0 0 15.2 18c.637 0 1.219-.207 1.688-.555L18.94 19.5c-.285.367-.48.813-.543 1.3H11.57a2.742 2.742 0 0 0-.465-1.202zm-4.207-.461l-2.035-2.035c.375-.407.63-.922.707-1.5h2.828v2.828a2.745 2.745 0 0 0-1.5.707zM3.2 12.398V5.57c.48-.066.918-.25 1.285-.527l2.07 2.07A2.819 2.819 0 0 0 6 8.801a2.781 2.781 0 0 0 2.398 2.77v3.23H5.57a2.742 2.742 0 0 0-.465-1.203 2.862 2.862 0 0 0-1.906-1.2zm11.274-6.89c.093.023.191.043.289.058v2.832H11.57A2.781 2.781 0 0 0 8.8 6c-.636 0-1.218.207-1.687.555l-2.07-2.07c.277-.368.46-.805.527-1.286h6.828a2.77 2.77 0 0 0 2.075 2.309zm2.629-.645l2.035 2.035a2.745 2.745 0 0 0-.707 1.5h-2.828V5.57a2.745 2.745 0 0 0 1.5-.707zM15.199 17.2c-1.12 0-2-.879-2-2 0-1.12.88-2 2-2 1.121 0 2 .88 2 2 0 1.121-.879 2-2 2zm-.437-4.765a2.23 2.23 0 0 0-.32.07 2.757 2.757 0 0 0-2.044 2.297H9.2v-3.23a2.768 2.768 0 0 0 2.371-2.372h3.192zM7.289 7.477a.312.312 0 0 0 .11-.079.338.338 0 0 0 .081-.113c.352-.3.81-.484 1.32-.484 1.122 0 2 .879 2 2 0 1.12-.878 2-2 2-1.12 0-2-.88-2-2 0-.512.184-.973.49-1.324zM23.2 8.8c0 1.12-.879 2-2 2-1.12 0-2-.88-2-2 0-.617.27-1.164.696-1.528A.396.396 0 0 0 20 7.2c.008-.008.016-.015.023-.027A2.014 2.014 0 0 1 21.2 6.8c1.121 0 2 .879 2 2zm-8-8c1.121 0 2 .879 2 2 0 .441-.137.847-.37 1.176-.013.007-.02.015-.028.023a.422.422 0 0 0-.082.11 1.977 1.977 0 0 1-1.52.69c-1.12 0-2-.878-2-2 0-1.12.88-2 2-2zM.801 2.8c0-1.121.879-2 2-2 1.12 0 2 .879 2 2 0 1.12-.88 2-2 2-1.121 0-2-.88-2-2zm0 12.398c0-1.12.879-2 2-2 1.12 0 2 .88 2 2 0 .614-.266 1.156-.692 1.52A.422.422 0 0 0 4 16.8c-.008.008-.016.015-.023.027A2.014 2.014 0 0 1 2.8 17.2c-1.121 0-2-.879-2-2zm8 8c-1.121 0-2-.879-2-2 0-.441.136-.847.375-1.176L7.199 20a.422.422 0 0 0 .082-.11 1.983 1.983 0 0 1 1.52-.69c1.12 0 2 .878 2 2 0 1.12-.88 2-2 2zm12.398 0c-1.12 0-2-.879-2-2 0-.512.184-.972.492-1.324a.416.416 0 0 0 .11-.074.421.421 0 0 0 .078-.113 2.006 2.006 0 0 1 1.32-.489c1.121 0 2 .88 2 2 0 1.121-.879 2-2 2zm0 0"/>
</svg>
